Sources/FrostedUI/Resources/Icons.xcassets/cartRemove16.imageset/cart-remove-16.svg

<svg width="16" height="16" viewBox="0 0 16 16" fill="none" xmlns="http://www.w3.org/2000/svg" data-fui-icon="true">
  <path
    d="M5.33398 11.083C6.20788 11.0834 6.91662 11.7921 6.91699 12.666C6.91699 13.5403 6.2081 14.2496 5.33398 14.25C4.45955 14.25 3.75 13.5405 3.75 12.666C3.75037 11.7918 4.45978 11.083 5.33398 11.083ZM11.334 11.083C12.2079 11.0834 12.9166 11.7921 12.917 12.666C12.917 13.5403 12.2081 14.2496 11.334 14.25C10.4595 14.25 9.75 13.5405 9.75 12.666C9.75037 11.7919 10.4597 11.083 11.334 11.083ZM5.33398 12.583C5.28817 12.583 5.25038 12.6203 5.25 12.666C5.25 12.7121 5.28794 12.75 5.33398 12.75C5.37971 12.7496 5.41699 12.7118 5.41699 12.666C5.41662 12.6205 5.37948 12.5834 5.33398 12.583ZM11.334 12.583C11.2882 12.583 11.2504 12.6203 11.25 12.666C11.25 12.7121 11.2879 12.75 11.334 12.75C11.3797 12.7496 11.417 12.7118 11.417 12.666C11.4166 12.6205 11.3795 12.5834 11.334 12.583ZM1.51367 1.08301C2.34762 1.08318 3.06581 1.67251 3.22949 2.49023L4.52148 8.94727C4.57602 9.21996 4.81569 9.41602 5.09375 9.41602H11.8906C12.1717 9.41564 12.4129 9.215 12.4639 8.93848L13.4297 3.69727C13.5049 3.29016 13.8955 3.02074 14.3027 3.0957C14.7098 3.17084 14.979 3.56166 14.9043 3.96875L13.9395 9.20996C13.7574 10.1981 12.8953 10.9156 11.8906 10.916H5.09375C4.10067 10.916 3.24554 10.2151 3.05078 9.24121L1.75879 2.78418C1.73533 2.66758 1.6326 2.58318 1.51367 2.58301H1.16699C0.752779 2.58301 0.416992 2.24722 0.416992 1.83301C0.41719 1.41896 0.752901 1.08301 1.16699 1.08301H1.51367ZM6.4375 2.60352C6.73042 2.31099 7.20625 2.31074 7.49902 2.60352L8.5 3.60449L9.50195 2.60352C9.79478 2.31126 10.2698 2.31112 10.5625 2.60352C10.8553 2.89629 10.855 3.37212 10.5625 3.66504L9.56055 4.66602L10.5625 5.66797C10.8553 5.96074 10.855 6.43559 10.5625 6.72852C10.2696 7.02141 9.79485 7.02141 9.50195 6.72852L8.5 5.72656L7.49902 6.72852C7.20613 7.02141 6.73039 7.02141 6.4375 6.72852C6.14499 6.43565 6.14488 5.96077 6.4375 5.66797L7.43848 4.66602L6.4375 3.66504C6.14461 3.37215 6.14461 2.89641 6.4375 2.60352Z"
    fill="currentColor"
  />
</svg>

<svg xmlns="http://www.w3.org/2000/svg" width="16" height="16" fill="none" data-fui-icon="true" viewBox="0 0 16 16"><path fill="currentColor" d="M5.334 11.083a1.584 1.584 0 1 1-.002 3.168 1.584 1.584 0 0 1 .002-3.168m6 0a1.584 1.584 0 1 1-.002 3.168 1.584 1.584 0 0 1 .002-3.168m-6 1.5a.084.084 0 0 0-.084.083c0 .046.038.084.084.084a.084.084 0 0 0 .083-.084.084.084 0 0 0-.083-.083m6 0a.084.084 0 0 0-.084.083c0 .046.038.084.084.084a.084.084 0 0 0 .083-.084.084.084 0 0 0-.083-.083m-9.82-11.5c.834 0 1.552.59 1.715 1.407l1.292 6.457a.58.58 0 0 0 .573.469h6.797a.584.584 0 0 0 .573-.478l.966-5.24a.75.75 0 0 1 1.474.27L13.94 9.21a2.084 2.084 0 0 1-2.05 1.706H5.095c-.993 0-1.848-.7-2.043-1.675L1.759 2.784a.25.25 0 0 0-.245-.201h-.347a.75.75 0 0 1 0-1.5zm4.924 1.52a.75.75 0 0 1 1.061 0L8.5 3.605l1.002-1a.75.75 0 0 1 1.06 1.061L9.562 4.666l1.002 1.002a.75.75 0 0 1-1.061 1.06L8.5 5.728 7.499 6.729a.751.751 0 0 1-1.061-1.061l1-1.002-1-1.001a.75.75 0 0 1 0-1.061"/></svg>
